img/why/6.svg

<svg width="30" height="30" viewBox="0 0 30 30" fill="none" xmlns="http://www.w3.org/2000/svg">
<g clip-path="url(#clip0_30_18690)">
<path d="M17.0789 30H12.9214C11.9064 30 11.0426 29.3062 10.8201 28.3137L10.2926 25.9725C9.43388 25.6087 8.61638 25.1337 7.85013 24.555L5.57263 25.2738C4.59512 25.575 3.53262 25.1612 3.04262 24.2887L0.970124 20.7038C0.473874 19.8162 0.641374 18.7225 1.37262 18.035L3.13762 16.4125C3.08387 15.9375 3.05637 15.4637 3.05637 15C3.05637 14.5363 3.08262 14.0625 3.13637 13.5875L1.38012 11.9725C0.641374 11.2775 0.472624 10.185 0.963874 9.30875L3.04887 5.7025C3.53387 4.84 4.59512 4.4225 5.57012 4.72625L7.85013 5.445C8.61638 4.86625 9.43513 4.39125 10.2926 4.0275L10.8201 1.685C11.0426 0.69375 11.9064 0 12.9214 0H17.0789C18.0939 0 18.9576 0.69375 19.1801 1.68625L19.7076 4.0275C20.5664 4.39125 21.3839 4.86625 22.1501 5.445L24.4276 4.72625C25.4026 4.42125 26.4664 4.83875 26.9576 5.71125L29.0301 9.29625C29.5264 10.1838 29.3589 11.2775 28.6276 11.965L26.8626 13.5875C26.9164 14.0625 26.9426 14.5363 26.9426 15C26.9426 15.4637 26.9164 15.9375 26.8626 16.4125L28.6201 18.0275C28.6226 18.03 28.6251 18.0325 28.6276 18.035C29.3589 18.7225 29.5276 19.815 29.0364 20.6912L26.9514 24.2975C26.4651 25.16 25.4039 25.5775 24.4301 25.2738L22.1489 24.5537C21.3826 25.1325 20.5639 25.6075 19.7064 25.9713L19.1789 28.3137C18.9576 29.3062 18.0939 30 17.0789 30ZM8.04263 22.5737C8.25763 22.5737 8.46888 22.6475 8.64013 22.7875C9.49638 23.4937 10.4339 24.0375 11.4251 24.4038C11.7226 24.5138 11.9451 24.7675 12.0151 25.0775L12.6514 27.9025C12.6801 28.0312 12.7951 28.125 12.9239 28.125H17.0814C17.2101 28.125 17.3239 28.0312 17.3539 27.9037L17.9901 25.0788C18.0601 24.7687 18.2814 24.515 18.5801 24.405C19.5714 24.0387 20.5089 23.4938 21.3651 22.7888C21.6101 22.5863 21.9389 22.5212 22.2439 22.6175L24.9951 23.4862C25.1251 23.5262 25.2651 23.4812 25.3264 23.37L27.4114 19.765C27.4739 19.6537 27.4514 19.5012 27.3501 19.4037L25.2401 17.4637C25.0101 17.2525 24.9014 16.9425 24.9489 16.6338C25.0314 16.0837 25.0739 15.5337 25.0739 15C25.0739 14.4663 25.0326 13.9175 24.9489 13.3663C24.9026 13.0575 25.0114 12.7475 25.2401 12.5363L27.3551 10.5912C27.4501 10.5012 27.4751 10.3475 27.4051 10.2238L25.3326 6.64C25.2651 6.52125 25.1301 6.475 24.9926 6.515L22.2451 7.3825C21.9401 7.47875 21.6114 7.41375 21.3664 7.21125C20.5101 6.505 19.5726 5.96125 18.5814 5.595C18.2839 5.485 18.0614 5.23125 17.9914 4.92125L17.3551 2.09625C17.3214 1.96875 17.2076 1.875 17.0789 1.875H12.9214C12.7926 1.875 12.6789 1.96875 12.6489 2.09625L12.0126 4.9225C11.9439 5.2325 11.7214 5.485 11.4239 5.59625C10.4326 5.9625 9.49512 6.50625 8.63888 7.2125C8.39388 7.415 8.06513 7.47875 7.76013 7.38375L5.00887 6.515C4.87887 6.475 4.73887 6.52125 4.67762 6.63125L2.59262 10.235C2.52887 10.3475 2.55387 10.5013 2.65637 10.5988L4.76512 12.5363C4.99512 12.7475 5.10387 13.0575 5.05637 13.3663C4.97387 13.9163 4.93137 14.4663 4.93137 15C4.93137 15.5337 4.97262 16.0825 5.05637 16.6338C5.10262 16.9425 4.99387 17.2525 4.76512 17.4637L2.65012 19.4088C2.55512 19.4988 2.53012 19.6525 2.60012 19.7763L4.67262 23.36C4.74137 23.48 4.87762 23.5287 5.01262 23.485L7.76013 22.6175C7.85263 22.5875 7.94763 22.5737 8.04263 22.5737Z" fill="white"/>
<path d="M14.0639 20C13.9926 20 13.9226 19.9925 13.8514 19.9763C13.3476 19.86 13.0326 19.3563 13.1489 18.8525L15.0239 10.7275C15.1401 10.2213 15.6501 9.91003 16.1476 10.0238C16.6514 10.14 16.9664 10.6438 16.8501 11.1475L14.9751 19.2725C14.8751 19.7075 14.4901 20 14.0639 20Z" fill="white"/>
<path d="M19.0625 18.75C18.8063 18.75 18.5513 18.6462 18.365 18.44C18.0188 18.055 18.05 17.4625 18.435 17.115L20.7863 15L18.435 12.885C18.05 12.5387 18.0188 11.9462 18.365 11.56C18.7125 11.1762 19.305 11.145 19.69 11.49L22.815 14.3025C23.0125 14.4812 23.125 14.735 23.125 15C23.125 15.265 23.0125 15.5187 22.815 15.6975L19.69 18.51C19.51 18.6712 19.2863 18.75 19.0625 18.75Z" fill="white"/>
<path d="M10.9375 18.7502C10.7137 18.7502 10.49 18.6714 10.31 18.5102L7.185 15.6977C6.9875 15.5189 6.875 15.2652 6.875 15.0002C6.875 14.7352 6.9875 14.4814 7.185 14.3027L10.31 11.4902C10.695 11.1439 11.2862 11.1752 11.635 11.5602C11.9812 11.9452 11.95 12.5377 11.565 12.8852L9.21375 15.0002L11.565 17.1152C11.95 17.4614 11.9812 18.0539 11.635 18.4402C11.4487 18.6464 11.1937 18.7502 10.9375 18.7502Z" fill="white"/>
</g>
<defs>
<clipPath id="clip0_30_18690">
<rect width="30" height="30" fill="white"/>
</clipPath>
</defs>
</svg>

<svg width="30" height="30" viewBox="0 0 30 30" fill="none" xmlns="http://www.w3.org/2000/svg"><g clip-path="url(#clip0_30_18690)" fill="#fff"><path d="M17.079 30H12.92a2.143 2.143 0 01-2.1-1.686l-.528-2.341a11.487 11.487 0 01-2.443-1.418l-2.277.719c-.978.301-2.04-.113-2.53-.985L.97 20.704a2.186 2.186 0 01.403-2.669l1.765-1.622a12.596 12.596 0 01-.002-2.825L1.38 11.973a2.182 2.182 0 01-.416-2.664l2.085-3.606c.485-.863 1.546-1.28 2.521-.977l2.28.719a11.514 11.514 0 012.443-1.418l.527-2.342A2.143 2.143 0 0112.921 0h4.158c1.015 0 1.879.694 2.101 1.686l.528 2.341a11.48 11.48 0 012.442 1.418l2.278-.719a2.17 2.17 0 012.53.985l2.072 3.585a2.185 2.185 0 01-.402 2.669l-1.765 1.623a12.58 12.58 0 010 2.825l1.757 1.614.008.008c.73.688.9 1.78.408 2.656l-2.085 3.607c-.486.862-1.547 1.28-2.52.976l-2.282-.72a11.515 11.515 0 01-2.443 1.417l-.527 2.343a2.14 2.14 0 01-2.1 1.686zm-9.036-7.426a.94.94 0 01.597.213 9.621 9.621 0 002.785 1.617.94.94 0 01.59.674l.636 2.825a.284.284 0 00.273.222h4.157a.285.285 0 00.273-.221l.636-2.825a.937.937 0 01.59-.674 9.646 9.646 0 002.785-1.616.934.934 0 01.879-.172l2.751.87c.13.04.27-.006.331-.117l2.085-3.605a.304.304 0 00-.06-.361l-2.11-1.94a.932.932 0 01-.292-.83c.082-.55.125-1.1.125-1.634 0-.534-.041-1.082-.125-1.634a.939.939 0 01.291-.83l2.115-1.945a.304.304 0 00.05-.367L25.333 6.64c-.068-.119-.203-.165-.34-.125l-2.748.868a.934.934 0 01-.879-.172 9.62 9.62 0 00-2.785-1.616.94.94 0 01-.59-.674l-.636-2.825a.292.292 0 00-.276-.221H12.92a.285.285 0 00-.272.221l-.636 2.827a.937.937 0 01-.59.673A9.618 9.618 0 008.64 7.213a.937.937 0 01-.879.17L5.01 6.516c-.13-.04-.27.006-.331.116l-2.085 3.604a.304.304 0 00.063.364l2.11 1.937a.93.93 0 01.29.83c-.082.55-.125 1.1-.125 1.634 0 .534.042 1.082.125 1.634a.938.938 0 01-.29.83L2.65 19.409a.304.304 0 00-.05.367l2.073 3.584a.28.28 0 00.34.125l2.747-.867a.913.913 0 01.283-.044z"/><path d="M14.064 20a.938.938 0 01-.915-1.148l1.875-8.125a.942.942 0 011.124-.703c.503.116.818.62.702 1.124l-1.875 8.125a.936.936 0 01-.911.727zm4.999-1.25a.936.936 0 01-.628-1.635L20.786 15l-2.351-2.115a.939.939 0 011.255-1.395l3.125 2.813a.941.941 0 010 1.394L19.69 18.51a.936.936 0 01-.628.24zm-8.125 0a.936.936 0 01-.628-.24l-3.125-2.812a.942.942 0 010-1.395l3.125-2.813a.939.939 0 011.255 1.395L9.214 15l2.351 2.115a.939.939 0 01-.627 1.635z"/></g><defs><clipPath id="clip0_30_18690"><path fill="#fff" d="M0 0h30v30H0z"/></clipPath></defs></svg>
